X:1
T:Erhör mich, Herr, in meinem leid
T:Adam Gumpelzhaimer
T:Source : Neüe Teütsche Geisliche Lieder mit 3 stimmen---Augsburg---V.Schonigk---1591. Editor : André Vierendeels (20/07/16).
T:Notes : Original clefs : C1, C2, C4 Editorial accidentals above the staff Text Middle German
T:Erhör mich, Herr, in meinem leid 
T:©
T:©
T:©
T:©
T:©
C:Adam Gumpelzhaimer
Z:©
%%score [ 1 2 3 ]
L:1/8
Q:1/4=128
M:4/4
K:F
V:1 treble nm="Soprano 1" snm="S 1"
V:2 treble nm="Soprano 2" snm="S 2"
V:3 treble-8 nm="Tenor" snm="T"
V:1
 c4 A2 c2 | B2 A2 G4 | A4 B2 c2 | B4 G4 | A2 c2 d2 A2 | B2 c2 A3 G | F2 E2 D4 |[M:2/4] C4 | %8
w: Er- hör mich,|Herr, inn mei-|nem leid, inn|mei- nem|leid, inn not- ten|zu dir ruf- *||fe,|
w: Was hilfft es|euch doch lie-|be herzn, doch|lie- be|herzn, das ihr mich|so be- lei- *||den:|
[M:4/4] c4 A2 c2 | B2 A2 G4 | A4 B2 c2 | B4 G4 | A2 c2 d2 A2 | B2 c2 A3 G | F2 E2 D4 | C4 z2 G2 | %16
w: sich an Gott|der ge- rech-|tig- keit, ge-|rech- tig-|keit, mein un- schuld|sel- ber bruf- *||fe, du|
w: und schen- det|mich an mei-|nen ehzn, an|mei- nen|ehzn, freu- en- lich|un- be- schei- *||den, wie|
 G2 G2 DEFG | A2 B2 c4 | A4 B2 d2 | A3 B c3 B/A/ | G2 A2 B2 AG | F2 G2 A2 B2 | c2 BA G2 A2 | %23
w: hast mir trost _ _ _|mich offt er-|löst, zu vor|||* inn mei- nen|not- * * * *|
w: lang wolt ihr _ _ _|_ euch ne-|men für, zu|lü- gen euch zu _|keh- ren: die lü- *|* gen liebt und|euch _ _ _ drinn|
 B2 c4 =B2 | c4 z2 G2 | G2 G2 DEFG | A2 B2 c4 | A4 B2 d2 | A3 B c3 B/A/ | G2 A2 B2 AG | %30
w: |ten, kumm|jetzt auch, Herr _ _ _|_ inn no-|ten schwer sei|gnä- * * * *||
w: _ _ _|übt, die|lü- gen liebt _ _ _|_ und euch|drinn übt, nicht|wolt, _ _ _ _|_ nicht wolt, _ _|
 F2 G2 A2 B2 | c2 BA G2 A2 | B2 c4 =B2 | !fermata!c8 |] %34
w: * dig, hör mein|be- * * * *||ten.|
w: _ nicht wolt die|War- * * * heit|hö- * *|ren.|
V:2
 z4 F4 | D2 F2 E3 D | CDEF G2 A2 | GF F4 E2 | F4 z2 F2 | G2 E2 F3 E | D2 C4 =B,2 |[M:2/4] C4 | %8
w: Er-|hör mich, Herr, _|_ _ _ _ _ in|mei- * * nen|leid, in|not- ten zu _|_ dir ruf-|fe,|
w: Was|hilfft es euch _|_ _ _ _ _ doch|lie- * * ben|herzn, das|ihr mich so be-|lei- * *|den:|
[M:4/4] z4 F4 | D2 F2 E3 D | CDEF G2 A2 | GF F4 E2 | F4 z2 F2 | G2 E2 F3 E | D2 C4 =B,2 | %15
w: sich|an Gott der _|_ _ _ _ _ ge-|rech- * * tig-|keit, mein|un- schuld sel- *|* ber bruf-|
w: und|schen- det mich _|_ _ _ _ _ den,|an _ mei- nen|ehzn, freu-|en- lich un- be-|schei- * *|
 C2 E2 E2 E2 | DCDE FGAB | c2 B2 A2 G2- | G2 ^F2 G4 | z4 z2 A2 | E3 F G2 FE | D2 E2 F2 ED | %22
w: fe, du hast mit|trost _ _ _ _ _ _ _|_ mich offt _|_ er- löst,|zu-|vor _ _ _ _||
w: den, wie lang wolt|ihr _ _ _ _ _ _ _|_ euch ne- *|* men für,|zur|lü- * * gen _|liebt, die lü- gen _|
 C2 D2 E2 F2 | E2 DC D4 | E2 E2 E2 E2 | DCDE FGAB | c2 B2 A2 G2- | G2 ^F2 G4 | z4 z2 A2 | %29
w: * inn mei- nen|not- * * *|ten, kumm jetzt auch,|Herr _ _ _ _ _ _ _|_ inn no- *|* ten schwer,|sei|
w: liebt und euch drinn|_ _ _ _|übt, die lü- gen|liebt _ _ _ _ _ _ _|_ und euch _|_ drinn übt,|nicht|
 E3 F G2 FE | D2 E2 F2 ED | C2 D2 E2 F2 | E2 DC D4 | !fermata!E8 |] %34
w: gnä- * * * *||* dig, hör mein|be- * * *|ten.|
w: wolt, _ _ _ _|_ nicht wolt die _|War- heit hö- *||ren.|
V:3
 z8 | z4 c4 | A2 c2 B2 A2 | B4 c4 | F4 z4 | z2 c2 d2 A2 | B2 c2 G4 |[M:2/4] C4 |[M:4/4] z8 | %9
w: |Er-|hör mich, Herr, inn|mei- nem|leid,|inn not- ten|zu dir ruf|fe,||
w: |Was|hilfft es euch coch|lie- ben|herzn,|das hir mich|so be- lei-|den:||
 z4 c4 | A2 c2 B2 A2 | B4 c4 | F4 z4 | z2 c2 d2 A2 | B2 c2 G4 | C2 c2 c2 c2 | GABc d3 c/B/ | %17
w: sich|an Gott der ge-|rech- tig-|keit,|mein un- schuld|sel- ber bruf-|fe, du hast mit|trost _ _ _ _ _ _|
w: und|schen- det mich an|mei- nen|ehzn,|freu- en- lich|un- be- schei-|den, wie lang wolt|ihr _ _ _ _ _ _|
 A2 G2 c4 | d4 G4 | z2 d2 A3 B | c2 BA G2 A2 | B2 AG F2 G2 | A2 B2 c2 F2 | G8 | C2 c2 c2 c2 | %25
w: _ mich offt|er- löst,|zu- voz _|||* inn mei- nen|not-|ten, kumm jetzt auch,|
w: _ euch ne-|men für,|zur lü- gen|euch zu _ keh- ren,|die lü- * * gen|liebt und euch _|drinn|übt, die lü- gen|
 GABc d3 c/B/ | A2 G2 c4 | d4 G4 | z2 d2 A3 B | c2 BA G2 A2 | B2 AG F2 G2 | A2 B2 c2 F2 | G8 | %33
w: Herr _ _ _ _ _ _|_ inn no-|ten schwer,|sei gnä- *|||* dig, hör mein|be-|
w: liebt _ _ _ _ _ _|_ und euch|drinn übt,|nicht wolt, _|_ _ _ _ nicht|wolt, _ _ _ nicht|wolt die War- heit|hö-|
 !fermata!C8 |] %34
w: ten.|
w: ren.|

